dist/svg/check-in-duo-tone.svg

<svg xmlns="http://www.w3.org/2000/svg" viewBox="0 0 24 24"><path d="M14.14 1.829c-.741.102-1.514.583-1.918 1.191l-.142.214-2.03.017c-2.276.019-2.234.014-2.83.321-.426.22-.938.724-1.152 1.136-.28.537-.308.735-.308 2.176 0 .801.016 1.312.043 1.383.092.245.436.49.688.492.228.002.554-.199.682-.419.032-.054.055-.495.071-1.34.015-.8.041-1.314.072-1.409.103-.323.498-.696.837-.79.09-.025.823-.041 1.877-.041h1.73v14.483l-1.81-.011-1.81-.012-.203-.107a1.5 1.5 0 0 1-.551-.541c-.113-.22-.146-.59-.146-1.657 0-.659-.016-1.113-.043-1.182a.75.75 0 0 0-.697-.464.75.75 0 0 0-.697.464c-.027.071-.043.582-.043 1.383 0 1.438.029 1.642.303 2.165.269.511.853 1.049 1.365 1.257.508.207.699.222 2.75.222h1.901l.107.17c.173.275.571.663.873.85.546.34 1.298.493 1.868.382.139-.027 1.437-.342 2.885-.701 3.093-.765 3.042-.746 3.61-1.317.413-.415.612-.751.739-1.248.077-.301.079-.471.079-6.896s-.002-6.595-.079-6.896c-.127-.498-.326-.833-.739-1.246-.572-.571-.523-.554-3.544-1.302-3.086-.765-3.245-.796-3.738-.727m3.155 2.133c1.433.354 2.684.682 2.78.73.236.117.503.424.592.679.069.199.073.523.073 6.629s-.004 6.43-.073 6.629c-.089.255-.368.575-.598.686-.093.045-1.339.372-2.769.726-2.342.579-2.628.642-2.88.63-.347-.018-.536-.105-.804-.371a1.1 1.1 0 0 1-.28-.421c-.074-.212-.076-.453-.076-7.879 0-7.279.004-7.67.072-7.867.158-.453.654-.813 1.119-.813.174 0 .95.175 2.844.642M6.768 9.284c-.313.094-.564.505-.508.834.041.242.146.368.619.745l.449.357-2.274.02c-2.51.022-2.401.011-2.628.28a.9.9 0 0 0-.186.48c0 .135.089.365.186.48.227.269.118.258 2.627.28l2.273.02-.462.37c-.254.203-.493.428-.531.5a.9.9 0 0 0-.07.354c-.003.504.49.868.958.707.191-.066 2.764-2.107 2.897-2.299.171-.246.158-.636-.03-.859-.105-.125-2.608-2.147-2.755-2.226-.117-.063-.422-.086-.565-.043m7.932 1.99c-.469.153-.686.676-.453 1.09.238.424.858.526 1.24.204.432-.364.316-1.044-.216-1.266a1 1 0 0 0-.571-.028"/></svg>

<svg fill="none" xmlns="http://www.w3.org/2000/svg" viewBox="0 0 24 24"><path d="M14.140 1.829 C 13.399 1.931,12.626 2.412,12.222 3.020 L 12.080 3.234 10.050 3.251 C 7.774 3.270,7.816 3.265,7.220 3.572 C 6.794 3.792,6.282 4.296,6.068 4.708 C 5.788 5.245,5.760 5.443,5.760 6.884 C 5.760 7.685,5.776 8.196,5.803 8.267 C 5.895 8.512,6.239 8.757,6.491 8.759 C 6.719 8.761,7.045 8.560,7.173 8.340 C 7.205 8.286,7.228 7.845,7.244 7.000 C 7.259 6.200,7.285 5.686,7.316 5.591 C 7.419 5.268,7.814 4.895,8.153 4.801 C 8.243 4.776,8.976 4.760,10.030 4.760 L 11.760 4.760 11.760 12.002 L 11.760 19.243 9.950 19.232 L 8.140 19.220 7.937 19.113 C 7.727 19.002,7.487 18.766,7.386 18.572 C 7.273 18.352,7.240 17.982,7.240 16.915 C 7.240 16.256,7.224 15.802,7.197 15.733 C 7.095 15.460,6.807 15.269,6.500 15.269 C 6.193 15.269,5.905 15.460,5.803 15.733 C 5.776 15.804,5.760 16.315,5.760 17.116 C 5.760 18.554,5.789 18.758,6.063 19.281 C 6.332 19.792,6.916 20.330,7.428 20.538 C 7.936 20.745,8.127 20.760,10.178 20.760 L 12.079 20.760 12.186 20.930 C 12.359 21.205,12.757 21.593,13.059 21.780 C 13.605 22.120,14.357 22.273,14.927 22.162 C 15.066 22.135,16.364 21.820,17.812 21.461 C 20.905 20.696,20.854 20.715,21.422 20.144 C 21.835 19.729,22.034 19.393,22.161 18.896 C 22.238 18.595,22.240 18.425,22.240 12.000 C 22.240 5.575,22.238 5.405,22.161 5.104 C 22.034 4.606,21.835 4.271,21.422 3.858 C 20.850 3.287,20.899 3.304,17.878 2.556 C 14.792 1.791,14.633 1.760,14.140 1.829 M17.295 3.962 C 18.728 4.316,19.979 4.644,20.075 4.692 C 20.311 4.809,20.578 5.116,20.667 5.371 C 20.736 5.570,20.740 5.894,20.740 12.000 C 20.740 18.106,20.736 18.430,20.667 18.629 C 20.578 18.884,20.299 19.204,20.069 19.315 C 19.976 19.360,18.730 19.687,17.300 20.041 C 14.958 20.620,14.672 20.683,14.420 20.671 C 14.073 20.653,13.884 20.566,13.616 20.300 C 13.475 20.160,13.389 20.030,13.336 19.879 C 13.262 19.667,13.260 19.426,13.260 12.000 C 13.260 4.721,13.264 4.330,13.332 4.133 C 13.490 3.680,13.986 3.320,14.451 3.320 C 14.625 3.320,15.401 3.495,17.295 3.962 M6.768 9.284 C 6.455 9.378,6.204 9.789,6.260 10.118 C 6.301 10.360,6.406 10.486,6.879 10.863 L 7.328 11.220 5.054 11.240 C 2.544 11.262,2.653 11.251,2.426 11.520 C 2.329 11.635,2.240 11.865,2.240 12.000 C 2.240 12.135,2.329 12.365,2.426 12.480 C 2.653 12.749,2.544 12.738,5.053 12.760 L 7.326 12.780 6.864 13.150 C 6.610 13.353,6.371 13.578,6.333 13.650 C 6.292 13.727,6.264 13.871,6.263 14.004 C 6.260 14.508,6.753 14.872,7.221 14.711 C 7.412 14.645,9.985 12.604,10.118 12.412 C 10.289 12.166,10.276 11.776,10.088 11.553 C 9.983 11.428,7.480 9.406,7.333 9.327 C 7.216 9.264,6.911 9.241,6.768 9.284 M14.700 11.274 C 14.231 11.427,14.014 11.950,14.247 12.364 C 14.485 12.788,15.105 12.890,15.487 12.568 C 15.919 12.204,15.803 11.524,15.271 11.302 C 15.121 11.239,14.847 11.226,14.700 11.274 " stroke="none" fill-rule="evenodd"/></svg>
